chat-remove.svg

<svg fill="currentColor" viewBox="0 0 24 24"><path d="m15.46 15.88 1.42-1.42L19 16.59l2.12-2.12 1.42 1.41L20.41 18l2.13 2.12-1.42 1.42L19 19.41l-2.12 2.13-1.42-1.42L17.59 18l-2.12-2.12M12 3c5.5 0 10 3.58 10 8 0 .58-.08 1.14-.22 1.68A6.005 6.005 0 0 0 13 18l.08.95L12 19c-1.24 0-2.43-.18-3.53-.5C5.55 21 2 21 2 21c2.33-2.33 2.7-3.9 2.75-4.5C3.05 15.07 2 13.14 2 11c0-4.42 4.5-8 10-8"/></svg>

<svg  viewBox="0 0 24 24" fill="currentColor"><path  d="M15.46 15.88L16.88 14.46L19 16.59L21.12 14.47L22.54 15.88L20.41 18L22.54 20.12L21.12 21.54L19 19.41L16.88 21.54L15.46 20.12L17.59 18L15.47 15.88M12 3C17.5 3 22 6.58 22 11C22 11.58 21.92 12.14 21.78 12.68C20.95 12.25 20 12 19 12C15.69 12 13 14.69 13 18L13.08 18.95L12 19C10.76 19 9.57 18.82 8.47 18.5C5.55 21 2 21 2 21C4.33 18.67 4.7 17.1 4.75 16.5C3.05 15.07 2 13.14 2 11C2 6.58 6.5 3 12 3Z"/></svg>
